X:1
T:Title
%%score { 1 | ( 2 3 ) }
L:1/8
M:4/4
K:Eb
V:1 treble nm="Grand Piano"
V:2 bass 
V:3 bass 
V:1
 z4 z2[Q:1/4=100] [EG]2 | [GB]3 [Gc] [FB]2 [FA]2 | G3 A G2 B2 | c2 B2 cd e2 |[M:3/4] d4 c2 | %5
[M:1/4] B2 |[M:4/4] [Be]3 [Bf] [EBe]2 [EAc]2 | [EGB]3 [EGc] [_DGB]2 [CFA]2 | %8
 [B,EG]3 [G,E] [B,DG]2 [A,DF]2 |[M:3/4] [G,E]6 |] %10
V:2
 z4 z2 [E,B,]2 | [E,B,]3 [E,B,] [D,B,]2 [D,B,]2 | [E,B,E]3 [E,CE] [E,B,E]2[K:treble] [G,B,E]2 | %3
 [A,E]2 [G,B,E]2 [A,E]2 [F,=A,F]2 |[M:3/4] z2 z2 E2 |[M:1/4] [A,DF]2 | %6
[M:4/4] [G,E]3 [G,E] G,2[K:bass] A,2 | E,3 E, =E,2 F,2 | B,,3 B,, B,,2 B,,2 |[M:3/4] E,6 |] %10
V:3
 x8 | x8 | x6[K:treble] x2 | x8 |[M:3/4] [B,F]6 |[M:1/4] x2 |[M:4/4] x6[K:bass] x2 | x8 | x8 | %9
[M:3/4] x6 |] %10

